!!!OTL: Muede kehrt ein Wandersmann zurueck nach der Heimat sehnt sich seinen Blick
!!!ARE: Europa, Mitteleuropa, Schweiz, Graubuenden, Tenna
!!!SCT: D1005
!!!YEM: Copyright 1995, estate of Helmut Schaffrath.
**kern
*ICvox
*Ivox
*M4/4
*k[f#]
*G:
{8.d
16g
=1
4.b
8a
8g
8g
8g
8b
=2
2d
4r}
{8d
8g
=3
4.a
8g
8f#
8a
8cc
8b
=4
2g}
{8d
8g
8b
8dd
=5
2dd
8cc
8b
8a
8g
=6
2e
4r}
{8g
8e
=7
8d
8g
4g
8f#
8a
8cc
8b
=8
2g}
{8d
8g
8b
8dd
=9
2dd
8cc
8b
8a
8g
=10
2e
4r}
{8g
8e
=11
8d
8g
4g
8f#
8a
8cc
8b
=12
2g
4r}
==
!!!AGN: Liebes - Lied
!! DVA-Signatur A 28 158
!!!ONB: ESAC (Essen Associative Code) Database: DVA
!!!AMT: simple quadruple
!!!AIN: vox
!!!EED: Helmut Schaffrath
!!!EEV: 1.0
*-
